X: 32128
T: Peter Davidson
R: reel
M: 4/4
K: Dmajor
A,C|D2 DF ADFA|dfec dcBA|BEEF GABc|dfec (3Bcd Ac|
dDDF ADFA|dfec dcBA|GABG AFDE (3FED CE D2:|
A2|d2 Ad fage|fdec dcBA|BEEF GABc|dfec (3Bcd Ac|
[1d2 Ad fage|fdec dcBA|GABG AFDF (3FED CE D2:|
[2dDDF ADFA|dfec dcBA|GABG AFDE (3FED CE D2||

